app/client/src/assets/icons/blueprintjs/20px/nest.svg

<svg xmlns="http://www.w3.org/2000/svg" width="20" height="20"><path fill-rule="evenodd" d="M2 2c.55 0 1 .45 1 1v5c0 2.21 1.79 4 4 4h8.59L13.3 9.71A.965.965 0 0 1 13 9a1.003 1.003 0 0 1 1.71-.71l4 4c.18.18.29.43.29.71 0 .28-.11.53-.29.71l-4 4a1.003 1.003 0 0 1-1.42-1.42l2.3-2.29H7c-3.31 0-6-2.69-6-6V3c0-.55.45-1 1-1Z" clip-rule="evenodd"/></svg>

<svg width="20" height="20" viewBox="0 0 20 20" xmlns="http://www.w3.org/2000/svg">
<path fill-rule="evenodd" clip-rule="evenodd" d="M2 2C2.55 2 3 2.45 3 3V8C3 10.21 4.79 12 7 12H15.59L13.3 9.71C13.11 9.53 13 9.28 13 9C13 8.45 13.45 8 14 8C14.28 8 14.53 8.11 14.71 8.29L18.71 12.29C18.89 12.47 19 12.72 19 13C19 13.28 18.89 13.53 18.71 13.71L14.71 17.71C14.53 17.89 14.28 18 14 18C13.45 18 13 17.55 13 17C13 16.72 13.11 16.47 13.29 16.29L15.59 14H7C3.69 14 1 11.31 1 8V3C1 2.45 1.45 2 2 2Z"/>
</svg>
